tenants/donaldduck/icons/thumbs_up.svg

<svg fill="none" height="24" viewBox="0 0 24 24" width="24" xmlns="http://www.w3.org/2000/svg"><path clip-rule="evenodd" d="m13.583 5.06303c-.1423-.00027-.2833.02761-.4148.08201-.1316.05441-.251.13428-.3516.23502-.1005.10074-.1802.22035-.2343.35198-.0542.13162-.0818.27266-.0813.41499v1.058c.0003 1.39565-.5527 2.7345-1.538 3.72297-.7323.7347-1.66596 1.2359-2.68299 1.44v5.42c0 .568.225 1.113.626 1.515.4.402.944.627 1.50999.627h7.389c.029 0 .058.002.087.004.1.009.268-.021.476-.23.214-.214.423-.58.542-1.078l1.029-5.157c-.0216-.2716-.1445-.5253-.3444-.7105s-.4621-.2886-.7346-.2895h-3.166c-.2732 0-.5351-.1085-.7283-.3017-.1932-.1931-.3017-.4551-.3017-.7283v-5.29297c-.0005-.28664-.1143-.56145-.3167-.76451-.2023-.20307-.4767-.31791-.7633-.31949zm-5.70299 16.07297c-.19356.2653-.4469.4812-.73948.6303-.29257.149-.61616.2271-.94452.2277h-2.11c-.27389.0001-.54509-.0539-.79804-.159-.25294-.105-.48266-.2589-.67596-.453-.39166-.3922-.61175-.9237-.612-1.478v-7.408c-.00079-.2742.05253-.5458.15691-.7993.10438-.2536.25776-.484.45135-.6782.1936-.1941.4236-.3482.67684-.4533.25323-.1051.52472-.1592.7989-.1592h3.167c.41933-.0001.8345-.083 1.22178-.2438s.73906-.39631 1.03522-.69317c.59899-.6.93499-1.415.93499-2.264v-1.058c0-.835.331-1.636.92-2.226.2913-.29196.6373-.52359 1.0183-.68164.3809-.15804.7893-.23939 1.2017-.23939s.8208.08135 1.2017.23939c.381.15805.727.38968 1.0183.68164.59.59.92 1.391.92 2.226v4.25997h2.137c.833 0 1.631.331 2.22.921.59.59.92 1.392.92 2.227 0 .068-.007.135-.02.202l-1.055 5.291c-.0025.0111-.0051.0221-.008.033-.185.793-.55 1.536-1.094 2.082-.543.544-1.263.883-2.056.83h-7.35c-.917-.0001-1.80763-.3011-2.53699-.857zm-1.657-8.666h-2.139c-.00699.0003-.0136.0032-.01845.0083-.00485.005-.00756.0117-.00755.0187v7.407c0 .007.003.014.008.018.00472.005.01118.0078.018.008h2.111c.00354.0001.00706-.0006.01033-.002.00326-.0014.00621-.0034.00867-.006.00492-.0047.0078-.0112.008-.018v-7.435z" fill="#000" fill-rule="evenodd"/></svg>

<svg width="24" height="24" viewBox="0 0 24 24" fill="none" xmlns="http://www.w3.org/2000/svg">
<path fill-rule="evenodd" clip-rule="evenodd" d="M13.583 5.06303C13.4407 5.06276 13.2997 5.09064 13.1682 5.14504C13.0366 5.19945 12.9172 5.27932 12.8166 5.38006C12.7161 5.4808 12.6364 5.60041 12.5823 5.73204C12.5281 5.86366 12.5005 6.0047 12.501 6.14703V7.20503C12.5013 8.60068 11.9483 9.93953 10.963 10.928C10.2307 11.6627 9.29704 12.1639 8.28001 12.368V17.788C8.28001 18.356 8.50501 18.901 8.90601 19.303C9.30601 19.705 9.85001 19.93 10.416 19.93H17.805C17.834 19.93 17.863 19.932 17.892 19.934C17.992 19.943 18.16 19.913 18.368 19.704C18.582 19.49 18.791 19.124 18.91 18.626L19.939 13.469C19.9174 13.1974 19.7945 12.9437 19.5946 12.7585C19.3947 12.5733 19.1325 12.4699 18.86 12.469H15.694C15.4208 12.469 15.1589 12.3605 14.9657 12.1673C14.7725 11.9742 14.664 11.7122 14.664 11.439V6.14603C14.6635 5.85939 14.5497 5.58458 14.3473 5.38152C14.145 5.17845 13.8706 5.06361 13.584 5.06203L13.583 5.06303ZM7.88001 21.136C7.68645 21.4013 7.43311 21.6172 7.14053 21.7663C6.84796 21.9153 6.52437 21.9934 6.19601 21.994H4.08601C3.81212 21.9941 3.54092 21.9401 3.28797 21.835C3.03503 21.73 2.80531 21.5761 2.61201 21.382C2.22035 20.9898 2.00026 20.4583 2.00001 19.904V12.496C1.99922 12.2218 2.05254 11.9502 2.15692 11.6967C2.2613 11.4431 2.41468 11.2127 2.60827 11.0185C2.80187 10.8244 3.03187 10.6703 3.28511 10.5652C3.53834 10.4601 3.80983 10.406 4.08401 10.406H7.25101C7.67034 10.4059 8.08551 10.323 8.47279 10.1622C8.86007 10.0014 9.21185 9.76589 9.50801 9.46903C10.107 8.86903 10.443 8.05403 10.443 7.20503V6.14703C10.443 5.31203 10.774 4.51103 11.363 3.92103C11.6543 3.62907 12.0003 3.39744 12.3813 3.23939C12.7622 3.08135 13.1706 3 13.583 3C13.9954 3 14.4038 3.08135 14.7847 3.23939C15.1657 3.39744 15.5117 3.62907 15.803 3.92103C16.393 4.51103 16.723 5.31203 16.723 6.14703V10.407H18.86C19.693 10.407 20.491 10.738 21.08 11.328C21.67 11.918 22 12.72 22 13.555C22 13.623 21.993 13.69 21.98 13.757L20.925 19.048C20.9225 19.0591 20.9199 19.0701 20.917 19.081C20.732 19.874 20.367 20.617 19.823 21.163C19.28 21.707 18.56 22.046 17.767 21.993H10.417C9.5 21.9929 8.60937 21.6919 7.88001 21.136ZM6.22301 12.47H4.08401C4.07702 12.4703 4.07041 12.4732 4.06556 12.4783C4.06071 12.4833 4.058 12.49 4.05801 12.497V19.904C4.05801 19.911 4.06101 19.918 4.06601 19.922C4.07073 19.927 4.07719 19.9298 4.08401 19.93H6.19501C6.19855 19.9301 6.20207 19.9294 6.20534 19.928C6.2086 19.9266 6.21155 19.9246 6.21401 19.922C6.21893 19.9173 6.22181 19.9108 6.22201 19.904V12.469L6.22301 12.47Z" fill="black"/>
</svg>
